src/img/footer-social/vk.svg

<svg width="32" height="32" viewBox="0 0 32 32" fill="none" xmlns="http://www.w3.org/2000/svg">
<rect width="32" height="32" rx="6" fill="white"/>
<path d="M28 0H4C1.79086 0 0 1.79086 0 4V28C0 30.2091 1.79086 32 4 32H28C30.2091 32 32 30.2091 32 28V4C32 1.79086 30.2091 0 28 0Z" fill="#44678D"/>
<path d="M8.28966 9.73838C9.05657 11.6323 10.0285 13.4179 11.3086 15.0209C11.4784 15.2342 11.6924 15.4238 11.9179 15.5782C12.2472 15.8044 12.5579 15.7249 12.6918 15.3482C12.8335 14.9529 12.9634 14.1517 12.9712 13.7366C12.9923 12.6519 12.968 11.941 12.9097 10.8576C12.8719 10.1638 12.6253 9.55448 11.6046 9.37058C11.2894 9.31357 11.2601 9.05412 11.4626 8.7953C11.8842 8.25645 12.4715 8.17058 13.1084 8.13659C14.1406 8.08084 15.1765 8.12634 16.21 8.13659C16.6309 8.14046 17.0544 8.17437 17.469 8.26474C18.0097 8.38263 18.2993 8.76194 18.3884 9.28984C18.4345 9.56214 18.4583 9.84209 18.4518 10.1176C18.4249 11.3016 18.3679 12.485 18.3544 13.6683C18.3486 14.1328 18.3826 14.6089 18.4819 15.0612C18.6209 15.6916 19.0502 15.8499 19.4891 15.3944C20.0465 14.8159 20.5379 14.1649 20.9992 13.5038C21.8372 12.3012 22.4631 10.9814 23.002 9.62056C23.2807 8.91839 23.4941 8.76588 24.2494 8.76398C25.6692 8.76075 27.089 8.75949 28.5087 8.76398C28.7605 8.76525 29.0239 8.78898 29.2615 8.8646C29.6472 8.98762 29.8004 9.30219 29.71 9.70138C29.4992 10.6368 28.9937 11.4319 28.4524 12.1963C27.5836 13.4225 26.6731 14.6194 25.7839 15.8315C25.6705 15.9859 25.5706 16.1506 25.4776 16.3178C25.1451 16.9188 25.1682 17.2557 25.6532 17.7561C26.4252 18.5525 27.2517 19.2976 27.9994 20.1157C28.5427 20.711 29.0456 21.3567 29.4762 22.0365C30.0208 22.8963 29.6844 23.7061 28.667 23.8503C28.027 23.9407 24.9005 23.851 24.7389 23.8503C23.8984 23.8465 23.1616 23.555 22.5683 22.9841C21.9084 22.3486 21.3086 21.6514 20.675 20.9883C20.4841 20.7884 20.2803 20.5969 20.0606 20.4296C19.5423 20.0343 19.0335 20.1221 18.7914 20.7308C18.5844 21.2536 18.4057 22.6265 18.3973 22.7438C18.3538 23.3569 17.9636 23.7478 17.2767 23.7855C15.2938 23.8932 13.3723 23.6721 11.5823 22.7131C10.0651 21.9006 8.85357 20.7519 7.80411 19.4122C6.13702 17.2844 4.82025 14.9454 3.61806 12.5377C3.55662 12.4146 2.33899 9.82362 2.30627 9.70124C2.19751 9.29145 2.29897 8.89999 2.64521 8.76524C2.86106 8.68127 6.87563 8.76496 6.94241 8.76854C7.583 8.80323 8.01982 9.0735 8.28966 9.73838Z" fill="white"/>
</svg>

<svg width="32" height="32" fill="none" xmlns="http://www.w3.org/2000/svg"><rect width="32" height="32" rx="6" fill="#fff"/><path d="M28 0H4a4 4 0 00-4 4v24a4 4 0 004 4h24a4 4 0 004-4V4a4 4 0 00-4-4z" fill="#44678D"/><path d="M8.29 9.738c.767 1.894 1.739 3.68 3.019 5.283.17.213.383.403.609.557.33.226.64.147.774-.23.142-.395.271-1.196.28-1.611a34.824 34.824 0 00-.062-2.88c-.038-.693-.285-1.303-1.305-1.486-.316-.057-.345-.317-.142-.576.421-.539 1.009-.624 1.645-.658 1.033-.056 2.069-.01 3.102 0 .42.003.844.037 1.259.128.54.118.83.497.92 1.025.046.272.07.552.063.828-.027 1.184-.084 2.367-.098 3.55-.005.465.029.94.128 1.393.139.63.568.789 1.007.333.558-.578 1.049-1.23 1.51-1.89.838-1.203 1.464-2.523 2.003-3.883.279-.703.492-.855 1.247-.857 1.42-.003 2.84-.005 4.26 0 .252.001.515.025.753.1.385.124.538.438.448.837-.21.936-.716 1.73-1.258 2.495-.868 1.226-1.779 2.423-2.668 3.636a4.614 4.614 0 00-.306.486c-.333.6-.31.938.175 1.438.772.796 1.599 1.542 2.346 2.36a13.92 13.92 0 011.477 1.92c.545.86.208 1.67-.809 1.814-.64.09-3.767.001-3.928 0-.84-.004-1.577-.295-2.17-.866-.66-.635-1.26-1.333-1.894-1.996-.19-.2-.395-.391-.614-.558-.519-.396-1.027-.308-1.27.3-.207.524-.385 1.896-.394 2.014-.043.613-.433 1.004-1.12 1.041-1.983.108-3.905-.113-5.695-1.072-1.517-.812-2.728-1.961-3.778-3.3-1.667-2.129-2.984-4.468-4.186-6.875-.061-.123-1.279-2.714-1.312-2.837-.108-.41-.007-.801.34-.936.215-.084 4.23 0 4.296.004.641.034 1.078.304 1.348.97z" fill="#fff"/></svg>
